tools/download-figma-icons/icons/outlined-medium/coin-50.svg

<svg width="24" height="24" viewBox="0 0 24 24" fill="none" xmlns="http://www.w3.org/2000/svg">
<path fill-rule="evenodd" clip-rule="evenodd" d="M1.5 12C1.5 17.79 6.21 22.5 12 22.5C17.79 22.5 22.5 17.79 22.5 12C22.5 6.21 17.79 1.5 12 1.5C6.21 1.5 1.5 6.21 1.5 12ZM0 12C0 5.3835 5.3835 0 12 0C18.6165 0 24 5.3835 24 12C24 18.6165 18.6165 24 12 24C5.3835 24 0 18.6165 0 12ZM8.25002 10.73V9.74973H10.125C10.5398 9.74973 10.875 9.41448 10.875 8.99973C10.875 8.58573 10.5398 8.24973 10.125 8.24973H7.50002C7.08527 8.24973 6.75002 8.58573 6.75002 8.99973V11.789C6.75002 12.0537 6.89102 12.2975 7.11752 12.4332C7.34552 12.5667 7.62752 12.5742 7.86002 12.4467L7.861 12.4462C7.89961 12.4264 8.9885 11.868 9.41927 12.3972C9.82802 12.9005 9.77102 13.3707 9.70127 13.6077C9.60302 13.9362 9.39002 14.1372 9.22277 14.1905C8.57137 14.399 7.99238 13.9987 7.95452 13.9725L7.95302 13.9715C7.62152 13.7202 7.15127 13.7862 6.90227 14.117C6.65177 14.447 6.71702 14.9172 7.04702 15.167C7.08602 15.197 7.83002 15.749 8.84477 15.749C9.10727 15.749 9.38702 15.713 9.67727 15.6207C10.3515 15.4055 10.911 14.7987 11.1383 14.036C11.4015 13.151 11.1998 12.209 10.5818 11.4507C9.94577 10.6692 9.03377 10.5732 8.25002 10.73ZM15.2857 13.9937C15.1837 14.1032 15.0044 14.2502 14.6302 14.2502C14.2544 14.2502 14.0744 14.1032 13.9717 13.993C13.5172 13.5047 13.4834 12.4217 13.5074 12.0827C13.5104 12.0422 13.5104 12.0024 13.5067 11.9627C13.4782 11.6185 13.4984 10.5235 13.9619 10.0172C14.0662 9.9032 14.2492 9.7517 14.6339 9.7502C14.9789 9.7757 15.1762 9.8912 15.2759 9.9992C15.7387 10.495 15.7702 11.6154 15.7439 11.9672C15.7409 12.0055 15.7409 12.0452 15.7439 12.0827C15.7694 12.4232 15.7387 13.5062 15.2857 13.9937ZM16.3762 8.9792C15.9322 8.5022 15.3322 8.2502 14.6399 8.2502H14.6264C13.9169 8.2532 13.3034 8.5142 12.8557 9.00545C11.9377 10.0082 11.9842 11.6515 12.0082 12.0287C11.9872 12.403 11.9557 14.0237 12.8692 15.0099C13.3177 15.4944 13.9267 15.7502 14.6302 15.7502C15.3337 15.7502 15.9419 15.4944 16.3897 15.0099C17.3024 14.0215 17.2657 12.3969 17.2432 12.0257C17.2657 11.6477 17.3039 9.9782 16.3762 8.9792ZM10.6267 19.511C9.23465 19.2725 7.9124 18.5352 6.69665 17.3195C5.4869 16.1105 4.72415 14.7455 4.48865 13.373C4.41965 12.965 4.04165 12.6927 3.62315 12.761C3.21515 12.8307 2.94065 13.2177 3.01115 13.6265C3.2984 15.3072 4.2059 16.9505 5.63615 18.38C7.0544 19.7997 8.69316 20.7012 10.3732 20.9892C10.4167 20.996 10.4587 20.9997 10.5007 20.9997C10.8599 20.9997 11.1764 20.7425 11.2387 20.3765C11.3092 19.9677 11.0347 19.5807 10.6267 19.511ZM13.627 3.01093C15.3903 3.31243 16.984 4.16518 18.364 5.54443C19.7628 6.94318 20.695 8.65843 20.989 10.3729C21.0595 10.7817 20.785 11.1694 20.377 11.2392C20.3335 11.2467 20.2908 11.2497 20.2495 11.2497C19.8903 11.2497 19.573 10.9924 19.5108 10.6264C19.2693 9.21493 18.4848 7.78618 17.3035 6.60493C16.1478 5.44993 14.8248 4.73818 13.3735 4.48918C12.9655 4.41943 12.691 4.03168 12.7608 3.62293C12.8305 3.21568 13.2138 2.94043 13.627 3.01093Z" fill="black"/>
</svg>

<svg width="24" height="24" viewBox="0 0 24 24" fill="none" xmlns="http://www.w3.org/2000/svg"><path fill-rule="evenodd" clip-rule="evenodd" d="M1.5 12c0 5.79 4.71 10.5 10.5 10.5S22.5 17.79 22.5 12 17.79 1.5 12 1.5 1.5 6.21 1.5 12ZM0 12C0 5.383 5.383 0 12 0c6.616 0 12 5.383 12 12 0 6.616-5.384 12-12 12-6.617 0-12-5.384-12-12Zm8.25-1.27v-.98h1.875a.75.75 0 1 0 0-1.5H7.5a.75.75 0 0 0-.75.75v2.789a.752.752 0 0 0 1.11.658h.001c.039-.02 1.128-.579 1.558-.05.409.503.352.974.282 1.21-.098.33-.311.53-.478.584-.652.208-1.23-.192-1.268-.219h-.002a.749.749 0 1 0-.906 1.195c.039.03.783.582 1.798.582.262 0 .542-.036.832-.128.675-.216 1.234-.822 1.461-1.585.264-.885.062-1.827-.556-2.585-.636-.782-1.548-.878-2.332-.721Zm7.036 3.264c-.102.11-.282.256-.656.256-.376 0-.556-.147-.658-.257-.455-.488-.489-1.571-.465-1.91a.717.717 0 0 0 0-.12c-.029-.345-.009-1.44.455-1.946.104-.114.287-.265.672-.267.345.026.542.141.642.25.463.495.494 1.615.468 1.967a.742.742 0 0 0 0 .116c.025.34-.005 1.423-.458 1.91Zm1.09-5.015c-.444-.477-1.044-.729-1.736-.729h-.014c-.71.003-1.323.264-1.77.755-.918 1.003-.872 2.646-.848 3.024-.02.374-.052 1.995.861 2.98.449.485 1.058.741 1.761.741.704 0 1.312-.256 1.76-.74.912-.989.876-2.613.853-2.984.023-.378.06-2.048-.867-3.047Zm-5.75 10.532c-1.391-.238-2.714-.976-3.93-2.191-1.21-1.21-1.972-2.575-2.207-3.947a.745.745 0 0 0-.866-.612.749.749 0 0 0-.612.866c.287 1.68 1.195 3.324 2.625 4.753 1.418 1.42 3.057 2.321 4.737 2.61a.748.748 0 0 0 .865-.613.749.749 0 0 0-.611-.866Zm3.001-16.5c1.763.301 3.357 1.154 4.737 2.533 1.399 1.4 2.331 3.114 2.625 4.829a.75.75 0 1 1-1.478.253c-.242-1.411-1.026-2.84-2.207-4.021-1.156-1.155-2.48-1.867-3.93-2.116a.75.75 0 0 1 .253-1.478Z" fill="currentColor"/></svg>
